X:1995
T:FLANDERS- Will you go to Flanders/ Gramachree Molly
O:england
S:SMM #357
Q:1/4=60
L:1/4
M:C
K:F
F/|c3/4 d/4 c/ A/ (d3/4e/4) f3/4 d/4|c/ A/ G3/4 A/4Fz/c/|\
f3/4 e/4 f/ g/ {f/}ed/ c/|d3/4 c/4 f3/4 A/4c3/2c/|\
f3/4 e/4 f3/4 g/4 f/ e/ d/ c/|d3/4 c/4 B/ A/ d3/2e/|\
f3/4 e/4 d/ c/ d3/4 e/4 .f/ {g/a/}d/|(c/4A3/4) G3/4A/4F3/2|]


